X:1
T:Persia's Crew
M:6/8
L:1/4
K:F
 A, C/2 F A/2| G E/2 C B,/2| A, C/2 F E/2| F3/2- F G/2| A F/2 A B/2|\
 c3/2 B A/2| G D/2 F A,/2| C3/2- C B/2| A F/2 A B/2| c c/2 B c/2| A F/2 G E/2|\
 C3/2- C C/2| D D/2 B A/2| G/2 E C B,/2| A, C/2 F E/2| F3/2- F z/2|\
